packages/icons/src/components/Icon/assets/default-outline/thumbs-down.svg

<svg width="20" height="20" viewBox="0 0 20 20" fill="none" xmlns="http://www.w3.org/2000/svg">
<path fill-rule="evenodd" clip-rule="evenodd" d="M5.34935 3.5C5.01982 3.5 4.74136 3.63124 4.57558 3.83708C3.27685 5.44972 2.5 7.4985 2.5 9.73077C2.5 10.0716 2.5181 10.4079 2.55333 10.7388C2.59759 11.1545 2.98943 11.5192 3.54577 11.5192H8.05385C8.46806 11.5192 8.80385 11.855 8.80385 12.2692C8.80385 12.6834 8.46806 13.0192 8.05385 13.0192H7.62791C7.62892 13.238 7.58349 13.4624 7.48167 13.6764C7.13608 14.403 6.94231 15.2163 6.94231 16.0769C6.94231 16.6752 7.39769 17.1672 7.98077 17.2251V16.8102C7.98077 16.2304 8.09141 15.6559 8.30675 15.1175C8.64896 14.262 9.33473 13.6628 10.0489 13.2825C10.8985 12.83 11.6423 12.2039 12.2325 11.4513C12.7304 10.8165 13.4893 10.306 14.3911 10.2543C14.7579 9.41447 14.9615 8.48664 14.9615 7.50962C14.9615 6.53418 14.7586 5.60788 14.393 4.76923L13.791 4.76923C13.3011 4.76923 12.8144 4.69026 12.3497 4.53535L9.71441 3.65691C9.40263 3.55298 9.07613 3.5 8.74748 3.5L5.34935 3.5ZM14.2957 3.26923H13.791C13.4623 3.26923 13.1358 3.21625 12.8241 3.11232L10.1888 2.23389C9.72402 2.07898 9.23735 2 8.74748 2L5.34935 2C4.63309 2 3.89751 2.28759 3.40733 2.89624C1.90171 4.76577 1 7.14399 1 9.73077C1 10.1247 1.02092 10.514 1.06176 10.8976C1.20144 12.2095 2.36473 13.0192 3.54577 13.0192H6.12754C6.12766 13.0203 6.12774 13.0214 6.12779 13.0225C6.12821 13.031 6.12651 13.0334 6.12711 13.0321C5.68779 13.9557 5.44231 14.9887 5.44231 16.0769C5.44231 17.5426 6.63047 18.7308 8.09615 18.7308C8.86086 18.7308 9.48077 18.1109 9.48077 17.3462V16.8102C9.48077 16.4212 9.55499 16.0358 9.69947 15.6746C9.87148 15.2446 10.2461 14.8769 10.754 14.6064C11.7894 14.055 12.6946 13.2927 13.4128 12.377C13.534 12.2225 13.6695 12.0945 13.813 11.9953C13.9196 12.5413 14.3549 13.0192 15.0328 13.0192H15.9236C16.8848 13.0192 17.8556 12.4921 18.2442 11.5059C18.7323 10.2674 19 8.91889 19 7.50962C19 6.40225 18.8347 5.33214 18.5269 4.32332C18.1957 3.23775 17.1662 2.63462 16.1406 2.63462H15.3725C14.8711 2.63462 14.4975 2.90619 14.2957 3.26923ZM15.7526 4.13462C16.2086 5.16771 16.4615 6.31 16.4615 7.50962C16.4615 8.8902 16.1265 10.1947 15.5327 11.3442C15.5023 11.403 15.4713 11.4613 15.4396 11.5192H15.9236C16.3704 11.5192 16.7211 11.2797 16.8487 10.9559C17.2688 9.88975 17.5 8.72758 17.5 7.50962C17.5 6.55223 17.3572 5.62957 17.0922 4.76107C16.9845 4.40813 16.619 4.13462 16.1406 4.13462H15.7526Z" fill="black"/>
</svg>

<svg xmlns="http://www.w3.org/2000/svg" width="20" height="20" fill="none" viewBox="0 0 20 20">
    <path fill="#000" fill-rule="evenodd" d="M5.35 3.5c-.33 0-.609.131-.774.337A9.36 9.36 0 0 0 2.5 9.731q0 .51.053 1.008c.045.415.436.78.993.78h4.508a.75.75 0 0 1 0 1.5h-.426c0 .219-.045.443-.146.657a5.6 5.6 0 0 0-.54 2.4c0 .6.456 1.091 1.039 1.15v-.416c0-.58.11-1.154.326-1.692.342-.856 1.028-1.455 1.742-1.835a6.9 6.9 0 0 0 2.184-1.832c.497-.635 1.256-1.145 2.158-1.197.367-.84.57-1.767.57-2.744 0-.976-.202-1.902-.568-2.74h-.602c-.49 0-.977-.08-1.441-.235l-2.636-.878a3 3 0 0 0-.967-.157zm8.946-.23h-.505c-.329 0-.655-.054-.967-.158l-2.635-.878A4.6 4.6 0 0 0 8.747 2H5.35c-.716 0-1.451.288-1.942.896A10.86 10.86 0 0 0 1 9.731q0 .591.062 1.167c.14 1.312 1.303 2.121 2.484 2.121h2.582v.014a7.1 7.1 0 0 0-.686 3.044 2.654 2.654 0 0 0 2.654 2.654c.765 0 1.385-.62 1.385-1.385v-.536c0-.389.074-.774.218-1.135.172-.43.547-.798 1.055-1.069a8.4 8.4 0 0 0 2.659-2.229q.183-.233.4-.382c.107.546.542 1.024 1.22 1.024h.89c.962 0 1.933-.527 2.321-1.513A10.9 10.9 0 0 0 19 7.51c0-1.108-.165-2.178-.473-3.187-.331-1.085-1.36-1.688-2.386-1.688h-.768c-.502 0-.875.271-1.077.634m1.457.865a8.3 8.3 0 0 1 .709 3.375 8.3 8.3 0 0 1-1.022 4.01h.484c.446 0 .797-.24.925-.564A9.4 9.4 0 0 0 17.5 7.51c0-.958-.143-1.88-.408-2.749-.107-.353-.473-.626-.951-.626z" clip-rule="evenodd"/>
</svg>
